src/static/qr.svg

<svg
  width="24"
  height="24"
  viewBox="0 0 24 24"
  fill="none"
  xmlns="http://www.w3.org/2000/svg"
>
  <path
    d="M4 9H8C8.26522 9 8.51957 8.89464 8.70711 8.70711C8.89464 8.51957 9 8.26522 9 8V4C9 3.73478 8.89464 3.48043 8.70711 3.29289C8.51957 3.10536 8.26522 3 8 3H4C3.73478 3 3.48043 3.10536 3.29289 3.29289C3.10536 3.48043 3 3.73478 3 4V8C3 8.26522 3.10536 8.51957 3.29289 8.70711C3.48043 8.89464 3.73478 9 4 9ZM5 5H7V7H5V5ZM3.5 13H4.5C4.63261 13 4.75979 12.9473 4.85355 12.8536C4.94732 12.7598 5 12.6326 5 12.5V11.5C5 11.3674 4.94732 11.2402 4.85355 11.1464C4.75979 11.0527 4.63261 11 4.5 11H3.5C3.36739 11 3.24021 11.0527 3.14645 11.1464C3.05268 11.2402 3 11.3674 3 11.5V12.5C3 12.6326 3.05268 12.7598 3.14645 12.8536C3.24021 12.9473 3.36739 13 3.5 13ZM8 15H4C3.73478 15 3.48043 15.1054 3.29289 15.2929C3.10536 15.4804 3 15.7348 3 16V20C3 20.2652 3.10536 20.5196 3.29289 20.7071C3.48043 20.8946 3.73478 21 4 21H8C8.26522 21 8.51957 20.8946 8.70711 20.7071C8.89464 20.5196 9 20.2652 9 20V16C9 15.7348 8.89464 15.4804 8.70711 15.2929C8.51957 15.1054 8.26522 15 8 15ZM7 19H5V17H7V19ZM17.5 21H20.5C20.6326 21 20.7598 20.9473 20.8536 20.8536C20.9473 20.7598 21 20.6326 21 20.5V17.5C21 17.3674 20.9473 17.2402 20.8536 17.1464C20.7598 17.0527 20.6326 17 20.5 17H19.5C19.3674 17 19.2402 17.0527 19.1464 17.1464C19.0527 17.2402 19 17.3674 19 17.5V19H17V20.5C17 20.6326 17.0527 20.7598 17.1464 20.8536C17.2402 20.9473 17.3674 21 17.5 21ZM20 3H16C15.7348 3 15.4804 3.10536 15.2929 3.29289C15.1054 3.48043 15 3.73478 15 4V8C15 8.26522 15.1054 8.51957 15.2929 8.70711C15.4804 8.89464 15.7348 9 16 9H20C20.2652 9 20.5196 8.89464 20.7071 8.70711C20.8946 8.51957 21 8.26522 21 8V4C21 3.73478 20.8946 3.48043 20.7071 3.29289C20.5196 3.10536 20.2652 3 20 3ZM19 7H17V5H19V7ZM7.5 11C7.36739 11 7.24021 11.0527 7.14645 11.1464C7.05268 11.2402 7 11.3674 7 11.5V12.5C7 12.6326 7.05268 12.7598 7.14645 12.8536C7.24021 12.9473 7.36739 13 7.5 13H11V11H7.5ZM11 14.5C11 14.6326 11.0527 14.7598 11.1464 14.8536C11.2402 14.9473 11.3674 15 11.5 15H13V16.5C13 16.6326 13.0527 16.7598 13.1464 16.8536C13.2402 16.9473 13.3674 17 13.5 17H15V13H11V14.5ZM11 19.5V20.5C11 20.6326 11.0527 20.7598 11.1464 20.8536C11.2402 20.9473 11.3674 21 11.5 21H14.5C14.6326 21 14.7598 20.9473 14.8536 20.8536C14.9473 20.7598 15 20.6326 15 20.5V19H11.5C11.3674 19 11.2402 19.0527 11.1464 19.1464C11.0527 19.2402 11 19.3674 11 19.5ZM20.5 11H15.5C15.3674 11 15.2402 11.0527 15.1464 11.1464C15.0527 11.2402 15 11.3674 15 11.5V13H17V14.5C17 14.6326 17.0527 14.7598 17.1464 14.8536C17.2402 14.9473 17.3674 15 17.5 15H18.5C18.6326 15 18.7598 14.9473 18.8536 14.8536C18.9473 14.7598 19 14.6326 19 14.5V13H20.5C20.6326 13 20.7598 12.9473 20.8536 12.8536C20.9473 12.7598 21 12.6326 21 12.5V11.5C21 11.3674 20.9473 11.2402 20.8536 11.1464C20.7598 11.0527 20.6326 11 20.5 11ZM17 19V17H15V19H17ZM11.5 7H12.5C12.6326 7 12.7598 6.94732 12.8536 6.85355C12.9473 6.75979 13 6.63261 13 6.5V3.5C13 3.36739 12.9473 3.24021 12.8536 3.14645C12.7598 3.05268 12.6326 3 12.5 3H11.5C11.3674 3 11.2402 3.05268 11.1464 3.14645C11.0527 3.24021 11 3.36739 11 3.5V6.5C11 6.63261 11.0527 6.75979 11.1464 6.85355C11.2402 6.94732 11.3674 7 11.5 7ZM13 10.5V9.5C13 9.36739 12.9473 9.24021 12.8536 9.14645C12.7598 9.05268 12.6326 9 12.5 9H11.5C11.3674 9 11.2402 9.05268 11.1464 9.14645C11.0527 9.24021 11 9.36739 11 9.5V11H12.5C12.6326 11 12.7598 10.9473 12.8536 10.8536C12.9473 10.7598 13 10.6326 13 10.5Z"
    fill="currentColor"
  />
</svg>

<svg xmlns="http://www.w3.org/2000/svg" width="24" height="24" fill="none"><path fill="currentColor" d="M4 9h4a1 1 0 0 0 1-1V4a1 1 0 0 0-1-1H4a1 1 0 0 0-1 1v4a1 1 0 0 0 1 1Zm1-4h2v2H5V5Zm-1.5 8h1a.5.5 0 0 0 .5-.5v-1a.5.5 0 0 0-.5-.5h-1a.5.5 0 0 0-.5.5v1a.5.5 0 0 0 .5.5ZM8 15H4a1 1 0 0 0-1 1v4a1 1 0 0 0 1 1h4a1 1 0 0 0 1-1v-4a1 1 0 0 0-1-1Zm-1 4H5v-2h2v2Zm10.5 2h3a.5.5 0 0 0 .5-.5v-3a.5.5 0 0 0-.5-.5h-1a.5.5 0 0 0-.5.5V19h-2v1.5a.5.5 0 0 0 .5.5ZM20 3h-4a1 1 0 0 0-1 1v4a1 1 0 0 0 1 1h4a1 1 0 0 0 1-1V4a1 1 0 0 0-1-1Zm-1 4h-2V5h2v2ZM7.5 11a.5.5 0 0 0-.5.5v1a.5.5 0 0 0 .5.5H11v-2H7.5Zm3.5 3.5a.5.5 0 0 0 .5.5H13v1.5a.5.5 0 0 0 .5.5H15v-4h-4v1.5Zm0 5v1a.5.5 0 0 0 .5.5h3a.5.5 0 0 0 .5-.5V19h-3.5a.5.5 0 0 0-.5.5Zm9.5-8.5h-5a.5.5 0 0 0-.5.5V13h2v1.5a.5.5 0 0 0 .5.5h1a.5.5 0 0 0 .5-.5V13h1.5a.5.5 0 0 0 .5-.5v-1a.5.5 0 0 0-.5-.5ZM17 19v-2h-2v2h2ZM11.5 7h1a.5.5 0 0 0 .5-.5v-3a.5.5 0 0 0-.5-.5h-1a.5.5 0 0 0-.5.5v3a.5.5 0 0 0 .5.5Zm1.5 3.5v-1a.5.5 0 0 0-.5-.5h-1a.5.5 0 0 0-.5.5V11h1.5a.5.5 0 0 0 .5-.5Z"/></svg>
